app/client/src/widgets/wds/WDSParagraphWidget/icon.svg

<svg width="15" height="15" viewBox="0 0 15 15" fill="none" xmlns="http://www.w3.org/2000/svg">
<path d="M1.5 1.5H2.5M2.5 1.5H4.5C5.05228 1.5 5.5 1.94772 5.5 2.5V2.5C5.5 3.05228 5.05228 3.5 4.5 3.5H2.5M2.5 1.5V3.5M3.5 5.5H1.5H2.5V3.5" stroke="#364252" stroke-linecap="round" stroke-linejoin="round"/>
<path d="M7.5 1.5H13.5" stroke="#364252" stroke-linecap="round" stroke-linejoin="round"/>
<path d="M7.5 3.5H13.5" stroke="#364252" stroke-linecap="round" stroke-linejoin="round"/>
<path d="M7.5 5.5H13.5" stroke="#364252" stroke-linecap="round" stroke-linejoin="round"/>
<path d="M1.5 7.5H13.5" stroke="#364252" stroke-linecap="round" stroke-linejoin="round"/>
<path d="M1.5 9.5H13.5" stroke="#364252" stroke-linecap="round" stroke-linejoin="round"/>
<path d="M1.5 11.5H13.5" stroke="#364252" stroke-linecap="round" stroke-linejoin="round"/>
<path d="M1.5 13.5H8.5" stroke="#364252" stroke-linecap="round" stroke-linejoin="round"/>
</svg>

<svg xmlns="http://www.w3.org/2000/svg" width="15" height="15" fill="none"><path stroke="#364252" stroke-linecap="round" stroke-linejoin="round" d="M1.5 1.5h1m0 0h2a1 1 0 0 1 1 1v0a1 1 0 0 1-1 1h-2m0-2v2m1 2h-2 1v-2M7.5 1.5h6M7.5 3.5h6M7.5 5.5h6M1.5 7.5h12M1.5 9.5h12M1.5 11.5h12M1.5 13.5h7"/></svg>
